svg/justvector/foursquare.svg

<svg xmlns="http://www.w3.org/2000/svg" viewBox="0 0 100 100" enable-background="new 0 0 100 100"><path d="m95 11.5l-33.666 34.34-12.11-11.669-5.077 4.886c-2.697-7.686-10.211-13.218-19.04-13.218-11.1 0-20.11 8.737-20.11 19.512 0 10.685 8.836 19.356 19.801 19.506l24.339 23.64 27.961-27.16-2.667-2.767 20.566-15.917v-31.15m-3.053 29.396l-45.06 35.465-16.969-15.03c-1.563.456-3.221.708-4.935.708-9.475 0-17.15-7.457-17.15-16.662 0-9.197 7.678-16.66 17.15-16.66 9.472 0 17.15 7.463 17.15 16.66 0 2.469-.568 4.807-1.561 6.914l6.938 11.233 44.47-45.84-.032 23.21"/></svg>

<?xml version="1.0" encoding="iso-8859-1"?>
<!-- Generator: Adobe Illustrator 15.0.0, SVG Export Plug-In . SVG Version: 6.00 Build 0)  -->
<!DOCTYPE svg PUBLIC "-//W3C//DTD SVG 1.1//EN" "http://www.w3.org/Graphics/SVG/1.1/DTD/svg11.dtd">
<svg version="1.1" id="Icons" xmlns="http://www.w3.org/2000/svg" xmlns:xlink="http://www.w3.org/1999/xlink" x="0px" y="0px"
	 width="100px" height="100px" viewBox="0 0 100 100" style="enable-background:new 0 0 100 100;" xml:space="preserve">
<path id="foursquare" d="M95,11.5L61.334,45.843L49.227,34.174L44.15,39.06c-2.697-7.686-10.211-13.218-19.042-13.218
	C14.011,25.842,5,34.579,5,45.354c0,10.685,8.836,19.356,19.801,19.506L49.14,88.5l27.961-27.163l-2.667-2.767L95,42.653V11.5z
	 M91.947,40.896L46.883,76.361L29.914,61.332c-1.563,0.456-3.221,0.708-4.935,0.708c-9.475,0-17.152-7.457-17.152-16.662
	c0-9.197,7.678-16.66,17.152-16.66c9.472,0,17.155,7.463,17.155,16.66c0,2.469-0.568,4.807-1.561,6.914l6.938,11.233l44.468-45.84
	L91.947,40.896z"/>
</svg>
